X:102
T:Lodenska.2voices. RHu.102
S:R.Hughes MS,1823,Whitchurch,Shrops.
N:Play ABCA
A:Whitchurch , Shropshire
Z:Neil Brookes 2006
M:2/4
L:1/8
Q:1/4=100
K:Bb
[V:1]F|BB3/4B/4 BB|B>F G/A/B/c/|dd3/4d/4 dd|d>A B/c/d/e/|!
[V:2]z|B,,B, F,D,|B,,2z2|B,,B, F,D,|B,,2z2|\
[V:1]ff3/4f/4 fb|fd3/4e/4 fb|fd/e/ f/e/d/c/|B3H||!
[V:2]B,B,3/4B,/4B,2|F,F,3/4F,/4 F,2|B,2F,2|E,F,B,,H||!
[V:1]F|BB A/G/A/F/|BB A/G/A/F/|BB/c/ e/d/c/B/|A/B/c/d/ c/F/G/A/|!
[V:2]z|[B,F,][B,3/4F,3/4][B,/4F,/4][C2F,2]|F,F,3/4F,/4 F,2|B,B, E,=E,|\
[V:1]BB A/G/A/F/|BB A/G/A/F/|BB/c/ c/e/A/c/|B3||!
[V:2]F,2F,,2|F,/D/C/D/ F,/E/C/E/|F,/D/C/D/ F,/E/C/E/|B,G, E,F,|B,,F,,B,,,||!
[V:1]B|Afff|f/e/d/c/ BB|AF FG/A/|B/A/B/c/ d/c/d/B/|!
[V:2]z|F,A,A,A,|F,B, B,B,|F,C CC|F,B, B,B,|\
[V:1]Afff|f/e/d/c/ Bb|Bb f/e/d/c/|”D.C.”B3|]
[V:2]F,A,A,A,|F,B, B,B,|B,B, A,A,|B,3|]

